X: 198
T: 199. Hilf, Gott, la\ss mir's gelingen
N: Derived from chor199.krn
C: Johann Sebastian Bach
%%abc-version 2.0
%%abcx-abcm2ps-target-version 5.9.1 (29 Sep 2008)
%%abc-creator hum2abc beta
%%abcx-conversion-date 2019/03/11 17:28:18
%%abc-edited-by Craig Stuart Sapp
%%humdrum-veritas 571690272
%%humdrum-veritas-data 3479087427
%%
%%barnumbers 0
L: 1/4
M: 3/4
%%staves [1 2 3 4]
V: 1 clef=treble
V: 2 clef=treble
V: 3 clef=treble-8
V: 4 clef=bass
K: F
[V:1] G [I:setbarnb 1]| 
[V:2] D/_E/ | 
[V:3] B | 
[V:4] G, | 
[V:1] A2G | 
[V:2] F2-F/E/ | 
[V:3] c2-c3//B// | 
[V:4] F,2C, | 
[V:1] F2D | 
[V:2] DA,B, | 
[V:3] AF3/G/ | 
[V:4] D,2B,, | 
[V:1] F3 | 
[V:2] C/_E/ D/C/=B, | 
[V:3] A2G/F/ | 
[V:4] A,,2D, | 
[V:1] !fermata!G2A | 
[V:2] !fermata!=E2E/^F/ | 
[V:3] !fermata!c2c | 
[V:4] !fermata!C,2A,, | 
[V:1] B2d | 
[V:2] G/^F/G2- | 
[V:3] d3/c/B/A/ | 
[V:4] G,,2B,, | 
[V:1] c2B | 
[V:2] G3/^F/G | 
[V:3] G/^F/ G/A/d | 
[V:4] _E,2D, | 
[V:1] A3 | 
[V:2] G2^F | 
[V:3] _ed/A/d/c/ | 
[V:4] C,D,D,, | 
[V:1] !fermata!G2 :|]  
[V:2] !fermata!D2 :|]  
[V:3] !fermata!B2 :|]  
[V:4] !fermata!G,,2 :|]  
[V:1] c [I:setbarnb 9]| 
[V:2] G- | 
[V:3] c/B/ | 
[V:4] =E, | 
[V:1] c2c | 
[V:2] G/F/- F/E/F- | 
[V:3] ABc- | 
[V:4] F,G,A, | 
[V:1] d2c | 
[V:2] F/E/F/G/ A/G/ | 
[V:3] cBc | 
[V:4] B,2F,/E,/ | 
[V:1] BAG | 
[V:2] F2-F/E/ | 
[V:3] d2G/c/ | 
[V:4] D,/C,/B,,C, | 
[V:1] !fermata!F2F | 
[V:2] !fermata!C2D | 
[V:3] !fermata!A2B/c/ | 
[V:4] !fermata!F,,2B,,/A,,/ | 
[V:1] B2A | 
[V:2] G2A- | 
[V:3] d/B/_e3/d/ | 
[V:4] G,,G,^F, | 
[V:1] B2c | 
[V:2] A/D/GA | 
[V:3] d2_e | 
[V:4] G,=F,/_E,/ D,/C,/ | 
[V:1] d2c | 
[V:2] B/A/G3/^F/ | 
[V:3] f_e/d/ _e/c/ | 
[V:4] B,,B,A, | 
[V:1] B3/A/G | 
[V:2] GD3/C/ | 
[V:3] d/_e/ =f/F/G | 
[V:4] G,F,_E, | 
[V:1] !fermata!^F2A | 
[V:2] !fermata!D2^F | 
[V:3] !fermata!A2d- | 
[V:4] !fermata!D,2D, | 
[V:1] B2d | 
[V:2] G2=F | 
[V:3] d/B/_ed/B/ | 
[V:4] G,3/_E,/B,- | 
[V:1] c2B | 
[V:2] =E/D/E/^F/G | 
[V:3] Gc/A/ B/d/ | 
[V:4] B,A,G, | 
[V:1] A3 | 
[V:2] G2^F | 
[V:3] _e/d/c/B/c/A/ | 
[V:4] C,A,,D, | 
[V:1] !fermata!G2 |]  
[V:2] !fermata!D2 |]  
[V:3] !fermata!=B2 |]  
[V:4] !fermata!G,,2 |]  



